packages/ffe-icons/icons/filled/md/add_card.svg

<svg xmlns="http://www.w3.org/2000/svg" height="24" viewBox="0 -960 960 960" width="24"><path d="M770.001-210.001H680q-12.75 0-21.375-8.628-8.624-8.629-8.624-21.384 0-12.756 8.624-21.371 8.625-8.615 21.375-8.615h90.001V-360q0-12.75 8.628-21.374 8.629-8.625 21.384-8.625 12.756 0 21.371 8.625 8.615 8.624 8.615 21.374v90.001H920q12.75 0 21.375 8.628 8.624 8.629 8.624 21.384 0 12.756-8.624 21.371-8.625 8.615-21.375 8.615h-90.001V-120q0 12.75-8.628 21.374Q812.742-90 799.987-90q-12.756 0-21.371-8.624-8.615-8.625-8.615-21.375v-90.001ZM160-496.155h640v-127.69H160v127.69Zm12.309 316.154q-30.308 0-51.308-21t-21-51.308v-455.382q0-30.308 21-51.308t51.308-21h615.382q30.308 0 51.308 21t21 51.308v201.538q0 15.365-10.395 25.76-10.394 10.394-25.759 10.394h-53.844q-83 0-141.5 58.5t-58.5 141.5v53.844q0 15.365-10.394 25.759-10.395 10.395-25.76 10.395H172.309Z"/></svg>

<svg xmlns="http://www.w3.org/2000/svg" height="24" viewBox="0 -960 960 960" width="24"><path d="M770-210h-90q-12.75 0-21.37-8.63-8.63-8.63-8.63-21.38 0-12.76 8.63-21.37Q667.25-270 680-270h90v-90q0-12.75 8.63-21.37 8.63-8.63 21.38-8.63 12.76 0 21.37 8.63Q830-372.75 830-360v90h90q12.75 0 21.37 8.63 8.63 8.63 8.63 21.38 0 12.76-8.63 21.37Q932.75-210 920-210h-90v90q0 12.75-8.63 21.37Q812.74-90 799.99-90q-12.76 0-21.37-8.63Q770-107.25 770-120v-90ZM160-496.16h640v-127.68H160v127.68ZM172.31-180Q142-180 121-201q-21-21-21-51.31v-455.38Q100-738 121-759q21-21 51.31-21h615.38Q818-780 839-759q21 21 21 51.31v201.54q0 15.36-10.4 25.76Q839.21-470 823.84-470H770q-83 0-141.5 58.5T570-270v53.84q0 15.37-10.39 25.76-10.4 10.4-25.76 10.4H172.31Z"/></svg>
